img/rays.svg

<svg version="1.1" xmlns="http://www.w3.org/2000/svg" xmlns:xlink="http://www.w3.org/1999/xlink" width="519" height="252"><defs/><g><rect fill="black" stroke="none" x="0" y="0" width="519" height="252"/><g/><rect fill="rgb(0,255,0)" stroke="none" x="133.53511268220004" y="118.75757000250002" width="5" height="5"/><path fill="none" stroke="rgb(128,128,128)" paint-order="fill stroke markers" d=" M 205.68532468220002 84.02525900250002 L 206.21676568220002 155.23835300250002" stroke-miterlimit="10" stroke-width="4" stroke-opacity="0.7142857142857143" stroke-dasharray=""/><path fill="none" stroke="rgb(255,255,255)" paint-order="fill stroke markers" d=" M 203.95110087156473 119.64673096004206 L 207.95098949283528 119.61688104495796" stroke-miterlimit="10" stroke-dasharray=""/><path fill="rgb(255,0,0)" stroke="none" paint-order="stroke fill markers" d=" M 205.6480122883449 79.02539822591186 L 210.7224978526433 88.98780738523305 L 200.722776299467 89.06243217294332"/><path fill="rgb(255,0,0)" stroke="none" paint-order="stroke fill markers" d=" M 206.25407807605515 160.2382137790882 L 211.17931406493307 150.2011798320567 L 201.1795925117567 150.27580461976697"/><path fill="none" stroke="rgb(168,168,168)" paint-order="fill stroke markers" d=" M 375.74644468220004 71.20779300250003 L 415.07307868220005 167.3986140025" stroke-miterlimit="10" stroke-dasharray=""/><path fill="none" stroke="rgb(255,255,128)" paint-order="fill stroke markers" d=" M 135.53511268220004 120.75757000250002 L 135.53511268220004 2349.0270014049315" stroke-miterlimit="10" stroke-dasharray=""/><path fill="none" stroke="rgb(255,255,128)" paint-order="fill stroke markers" d=" M 135.53511268220004 120.75757000250002 L 404.1233126578737 2332.780408437118" stroke-miterlimit="10" stroke-dasharray=""/><path fill="none" stroke="rgb(255,255,128)" paint-order="fill stroke markers" d=" M 135.53511268220004 120.75757000250002 L 668.7948918699055 2284.277541443299" stroke-miterlimit="10" stroke-dasharray=""/><path fill="none" stroke="rgb(255,255,128)" paint-order="fill stroke markers" d=" M 135.53511268220004 120.75757000250002 L 925.6903427049999 2204.225681443165" stroke-miterlimit="10" stroke-dasharray=""/><path fill="none" stroke="rgb(255,255,128)" paint-order="fill stroke markers" d=" M 135.53511268220004 120.75757000250002 L 1171.063551011688 2093.7921648166425" stroke-miterlimit="10" stroke-dasharray=""/><path fill="none" stroke="rgb(255,255,128)" paint-order="fill stroke markers" d=" M 135.53511268220004 120.75757000250002 L 1401.3364228805892 1954.5873609107393" stroke-miterlimit="10" stroke-dasharray=""/><path fill="none" stroke="rgb(255,255,128)" paint-order="fill stroke markers" d=" M 135.53511268220004 120.75757000250002 L 1613.1510613105042 1788.6411892283118" stroke-miterlimit="10" stroke-dasharray=""/><path fill="none" stroke="rgb(255,255,128)" paint-order="fill stroke markers" d=" M 135.53511268220004 120.75757000250002 L 1803.418731908027 1598.3735186307865" stroke-miterlimit="10" stroke-dasharray=""/><path fill="none" stroke="rgb(255,255,128)" paint-order="fill stroke markers" d=" M 135.53511268220004 120.75757000250002 L 1969.3649035904393 1386.5588802008895" stroke-miterlimit="10" stroke-dasharray=""/><path fill="none" stroke="rgb(255,255,128)" paint-order="fill stroke markers" d=" M 135.53511268220004 120.75757000250002 L 2108.5697074963423 1156.2860083319881" stroke-miterlimit="10" stroke-dasharray=""/><path fill="none" stroke="rgb(255,255,128)" paint-order="fill stroke markers" d=" M 135.53511268220004 120.75757000250002 L 206.1593287359421 147.54180220394224" stroke-miterlimit="10" stroke-dasharray=""/><path fill="none" stroke="rgb(255,255,128)" paint-order="fill stroke markers" d=" M 135.53511268220004 120.75757000250002 L 206.089222721533 138.14759627312066" stroke-miterlimit="10" stroke-dasharray=""/><path fill="none" stroke="rgb(255,255,128)" paint-order="fill stroke markers" d=" M 135.53511268220004 120.75757000250002 L 206.02331818000093 129.31638770782288" stroke-miterlimit="10" stroke-dasharray=""/><path fill="none" stroke="rgb(255,255,128)" paint-order="fill stroke markers" d=" M 135.53511268220004 120.75757000250002 L 205.9594464060806 120.75757000249905" stroke-miterlimit="10" stroke-dasharray=""/><path fill="none" stroke="rgb(255,255,128)" paint-order="fill stroke markers" d=" M 135.53511268220004 120.75757000250002 L 205.89569028016555 112.21424912989252" stroke-miterlimit="10" stroke-dasharray=""/><path fill="none" stroke="rgb(255,255,128)" paint-order="fill stroke markers" d=" M 135.53511268220004 120.75757000250002 L 205.83014663182934 103.43140025283684" stroke-miterlimit="10" stroke-dasharray=""/><path fill="none" stroke="rgb(255,255,128)" paint-order="fill stroke markers" d=" M 135.53511268220004 120.75757000250002 L 205.76069230648824 94.12452065712687" stroke-miterlimit="10" stroke-dasharray=""/><path fill="none" stroke="rgb(255,255,128)" paint-order="fill stroke markers" d=" M 135.53511268220004 120.75757000250002 L 2108.5697074963423 -914.7708683269884" stroke-miterlimit="10" stroke-dasharray=""/><path fill="none" stroke="rgb(255,255,128)" paint-order="fill stroke markers" d=" M 135.53511268220004 120.75757000250002 L 1969.364903590439 -1145.0437401958898" stroke-miterlimit="10" stroke-dasharray=""/><path fill="none" stroke="rgb(255,255,128)" paint-order="fill stroke markers" d=" M 135.53511268220004 120.75757000250002 L 1803.418731908027 -1356.8583786257866" stroke-miterlimit="10" stroke-dasharray=""/><path fill="none" stroke="rgb(255,255,128)" paint-order="fill stroke markers" d=" M 135.53511268220004 120.75757000250002 L 1613.151061310504 -1547.1260492233118" stroke-miterlimit="10" stroke-dasharray=""/><path fill="none" stroke="rgb(255,255,128)" paint-order="fill stroke markers" d=" M 135.53511268220004 120.75757000250002 L 1401.3364228805892 -1713.0722209057394" stroke-miterlimit="10" stroke-dasharray=""/><path fill="none" stroke="rgb(255,255,128)" paint-order="fill stroke markers" d=" M 135.53511268220004 120.75757000250002 L 1171.0635510116879 -1852.2770248116426" stroke-miterlimit="10" stroke-dasharray=""/><path fill="none" stroke="rgb(255,255,128)" paint-order="fill stroke markers" d=" M 135.53511268220004 120.75757000250002 L 925.6903427050005 -1962.710541438165" stroke-miterlimit="10" stroke-dasharray=""/><path fill="none" stroke="rgb(255,255,128)" paint-order="fill stroke markers" d=" M 135.53511268220004 120.75757000250002 L 668.7948918699054 -2042.762401438299" stroke-miterlimit="10" stroke-dasharray=""/><path fill="none" stroke="rgb(255,255,128)" paint-order="fill stroke markers" d=" M 135.53511268220004 120.75757000250002 L 404.1233126578734 -2091.265268432118" stroke-miterlimit="10" stroke-dasharray=""/><path fill="none" stroke="rgb(255,255,128)" paint-order="fill stroke markers" d=" M 135.53511268220004 120.75757000250002 L 135.53511268220032 -2107.5118613999316" stroke-miterlimit="10" stroke-dasharray=""/><path fill="none" stroke="rgb(255,255,128)" paint-order="fill stroke markers" d=" M 135.53511268220004 120.75757000250002 L -133.05308729347328 -2091.265268432118" stroke-miterlimit="10" stroke-dasharray=""/><path fill="none" stroke="rgb(255,255,128)" paint-order="fill stroke markers" d=" M 135.53511268220004 120.75757000250002 L -397.7246665055053 -2042.762401438299" stroke-miterlimit="10" stroke-dasharray=""/><path fill="none" stroke="rgb(255,255,128)" paint-order="fill stroke markers" d=" M 135.53511268220004 120.75757000250002 L -654.6201173406004 -1962.710541438165" stroke-miterlimit="10" stroke-dasharray=""/><path fill="none" stroke="rgb(255,255,128)" paint-order="fill stroke markers" d=" M 135.53511268220004 120.75757000250002 L -899.9933256472879 -1852.2770248116426" stroke-miterlimit="10" stroke-dasharray=""/><path fill="none" stroke="rgb(255,255,128)" paint-order="fill stroke markers" d=" M 135.53511268220004 120.75757000250002 L -1130.2661975161893 -1713.0722209057394" stroke-miterlimit="10" stroke-dasharray=""/><path fill="none" stroke="rgb(255,255,128)" paint-order="fill stroke markers" d=" M 135.53511268220004 120.75757000250002 L -1342.0808359460686 -1547.1260492233434" stroke-miterlimit="10" stroke-dasharray=""/><path fill="none" stroke="rgb(255,255,128)" paint-order="fill stroke markers" d=" M 135.53511268220004 120.75757000250002 L -1532.348506543627 -1356.8583786257866" stroke-miterlimit="10" stroke-dasharray=""/><path fill="none" stroke="rgb(255,255,128)" paint-order="fill stroke markers" d=" M 135.53511268220004 120.75757000250002 L -1698.2946782260392 -1145.0437401958898" stroke-miterlimit="10" stroke-dasharray=""/><path fill="none" stroke="rgb(255,255,128)" paint-order="fill stroke markers" d=" M 135.53511268220004 120.75757000250002 L -1837.499482131929 -914.7708683270139" stroke-miterlimit="10" stroke-dasharray=""/><path fill="none" stroke="rgb(255,255,128)" paint-order="fill stroke markers" d=" M 135.53511268220004 120.75757000250002 L -1947.9329987584613 -669.3976600203107" stroke-miterlimit="10" stroke-dasharray=""/><path fill="none" stroke="rgb(255,255,128)" paint-order="fill stroke markers" d=" M 135.53511268220004 120.75757000250002 L -2027.9848587585914 -412.5022091852357" stroke-miterlimit="10" stroke-dasharray=""/><path fill="none" stroke="rgb(255,255,128)" paint-order="fill stroke markers" d=" M 135.53511268220004 120.75757000250002 L -2076.487725752417 -147.8306299731778" stroke-miterlimit="10" stroke-dasharray=""/><path fill="none" stroke="rgb(255,255,128)" paint-order="fill stroke markers" d=" M 135.53511268220004 120.75757000250002 L -2092.7343187202314 120.75757000250016" stroke-miterlimit="10" stroke-dasharray=""/><path fill="none" stroke="rgb(255,255,128)" paint-order="fill stroke markers" d=" M 135.53511268220004 120.75757000250002 L -2076.487725752417 389.3457699781776" stroke-miterlimit="10" stroke-dasharray=""/><path fill="none" stroke="rgb(255,255,128)" paint-order="fill stroke markers" d=" M 135.53511268220004 120.75757000250002 L -2027.9848587585914 654.0173491902356" stroke-miterlimit="10" stroke-dasharray=""/><path fill="none" stroke="rgb(255,255,128)" paint-order="fill stroke markers" d=" M 135.53511268220004 120.75757000250002 L -1947.9329987584613 910.9128000253104" stroke-miterlimit="10" stroke-dasharray=""/><path fill="none" stroke="rgb(255,255,128)" paint-order="fill stroke markers" d=" M 135.53511268220004 120.75757000250002 L -1837.4994821319424 1156.2860083319881" stroke-miterlimit="10" stroke-dasharray=""/><path fill="none" stroke="rgb(255,255,128)" paint-order="fill stroke markers" d=" M 135.53511268220004 120.75757000250002 L -1698.2946782260394 1386.5588802008895" stroke-miterlimit="10" stroke-dasharray=""/><path fill="none" stroke="rgb(255,255,128)" paint-order="fill stroke markers" d=" M 135.53511268220004 120.75757000250002 L -1532.348506543627 1598.3735186307865" stroke-miterlimit="10" stroke-dasharray=""/><path fill="none" stroke="rgb(255,255,128)" paint-order="fill stroke markers" d=" M 135.53511268220004 120.75757000250002 L -1342.0808359460689 1788.641189228343" stroke-miterlimit="10" stroke-dasharray=""/><path fill="none" stroke="rgb(255,255,128)" paint-order="fill stroke markers" d=" M 135.53511268220004 120.75757000250002 L -1130.2661975161893 1954.5873609107393" stroke-miterlimit="10" stroke-dasharray=""/><path fill="none" stroke="rgb(255,255,128)" paint-order="fill stroke markers" d=" M 135.53511268220004 120.75757000250002 L -899.9933256472881 2093.7921648166425" stroke-miterlimit="10" stroke-dasharray=""/><path fill="none" stroke="rgb(255,255,128)" paint-order="fill stroke markers" d=" M 135.53511268220004 120.75757000250002 L -654.6201173405998 2204.225681443165" stroke-miterlimit="10" stroke-dasharray=""/><path fill="none" stroke="rgb(255,255,128)" paint-order="fill stroke markers" d=" M 135.53511268220004 120.75757000250002 L -397.7246665055054 2284.277541443299" stroke-miterlimit="10" stroke-dasharray=""/><path fill="none" stroke="rgb(255,255,128)" paint-order="fill stroke markers" d=" M 135.53511268220004 120.75757000250002 L -133.05308729347368 2332.780408437118" stroke-miterlimit="10" stroke-dasharray=""/><path fill="none" stroke="rgb(255,255,128)" paint-order="fill stroke markers" d=" M 206.1593287359421 147.54180220394224 L 383.84258137664074 91.01050572809136" stroke-miterlimit="10" stroke-dasharray=""/><path fill="none" stroke="rgb(255,255,128)" paint-order="fill stroke markers" d=" M 206.089222721533 138.14759627312066 L 387.1064918102136 98.99385422101977" stroke-miterlimit="10" stroke-dasharray=""/><path fill="none" stroke="rgb(255,255,128)" paint-order="fill stroke markers" d=" M 206.02331818000093 129.31638770782288 L 390.4060086675603 107.06429410182716" stroke-miterlimit="10" stroke-dasharray=""/><path fill="none" stroke="rgb(255,255,128)" paint-order="fill stroke markers" d=" M 205.9594464060806 120.75757000249905 L 393.8421123330799 115.46881793235494" stroke-miterlimit="10" stroke-dasharray=""/><path fill="none" stroke="rgb(255,255,128)" paint-order="fill stroke markers" d=" M 205.89569028016555 112.21424912989252 L 397.53297996502505 124.4964806537341" stroke-miterlimit="10" stroke-dasharray=""/><path fill="none" stroke="rgb(255,255,128)" paint-order="fill stroke markers" d=" M 205.83014663182934 103.43140025283684 L 401.6317232452928 134.52178516357833" stroke-miterlimit="10" stroke-dasharray=""/><path fill="none" stroke="rgb(255,255,128)" paint-order="fill stroke markers" d=" M 205.76069230648824 94.12452065712687 L 406.3551906010005 146.07513099307965" stroke-miterlimit="10" stroke-dasharray=""/><path fill="none" stroke="rgb(255,255,128)" paint-order="fill stroke markers" d=" M 383.84258137664074 91.01050572809136 L -1799.690633373716 1195.165814347742" stroke-miterlimit="10" stroke-dasharray=""/><path fill="none" stroke="rgb(255,255,128)" paint-order="fill stroke markers" d=" M 387.1064918102136 98.99385422101977 L -1691.33573293911 1411.328004545774" stroke-miterlimit="10" stroke-dasharray=""/><path fill="none" stroke="rgb(255,255,128)" paint-order="fill stroke markers" d=" M 390.4060086675603 107.06429410182716 L -1566.3223872173862 1613.5113475477656" stroke-miterlimit="10" stroke-dasharray=""/><path fill="none" stroke="rgb(255,255,128)" paint-order="fill stroke markers" d=" M 393.8421123330799 115.46881793235494 L -1424.9572230857225 1803.2950896066027" stroke-miterlimit="10" stroke-dasharray=""/><path fill="none" stroke="rgb(255,255,128)" paint-order="fill stroke markers" d=" M 397.53297996502505 124.4964806537341 L -1266.7322338820238 1981.991640859436" stroke-miterlimit="10" stroke-dasharray=""/><path fill="none" stroke="rgb(255,255,128)" paint-order="fill stroke markers" d=" M 401.6317232452928 134.52178516357833 L -1090.4094566824087 2150.589865391503" stroke-miterlimit="10" stroke-dasharray=""/><path fill="none" stroke="rgb(255,255,128)" paint-order="fill stroke markers" d=" M 406.3551906010005 146.07513099307965 L -894.073862214565 2309.756099905427" stroke-miterlimit="10" stroke-dasharray=""/><rect fill="rgb(0,255,0)" stroke="none" x="133.53511268220004" y="118.75757000250002" width="5" height="5"/><path fill="none" stroke="rgb(128,128,128)" paint-order="fill stroke markers" d=" M 205.68532468220002 84.02525900250002 L 206.21676568220002 155.23835300250002" stroke-miterlimit="10" stroke-width="4" stroke-opacity="0.7142857142857143" stroke-dasharray=""/><path fill="none" stroke="rgb(255,255,255)" paint-order="fill stroke markers" d=" M 203.95110087156473 119.64673096004206 L 207.95098949283528 119.61688104495796" stroke-miterlimit="10" stroke-dasharray=""/><path fill="rgb(255,0,0)" stroke="none" paint-order="stroke fill markers" d=" M 205.6480122883449 79.02539822591186 L 210.7224978526433 88.98780738523305 L 200.722776299467 89.06243217294332"/><path fill="rgb(255,0,0)" stroke="none" paint-order="stroke fill markers" d=" M 206.25407807605515 160.2382137790882 L 211.17931406493307 150.2011798320567 L 201.1795925117567 150.27580461976697"/><path fill="none" stroke="rgb(168,168,168)" paint-order="fill stroke markers" d=" M 375.74644468220004 71.20779300250003 L 415.07307868220005 167.3986140025" stroke-miterlimit="10" stroke-dasharray=""/></g></svg>

<svg xmlns="http://www.w3.org/2000/svg" width="519" height="252"><path d="M0 0h519v252H0z"/><path fill="#0F0" d="M133.535 118.758h5v5h-5z"/><path fill="none" stroke="gray" paint-order="fill stroke markers" d="m205.685 84.025.532 71.213" stroke-miterlimit="10" stroke-width="4" stroke-opacity=".714"/><path fill="none" stroke="#FFF" paint-order="fill stroke markers" d="m203.951 119.647 4-.03" stroke-miterlimit="10"/><path fill="red" paint-order="stroke fill markers" d="m205.648 79.025 5.074 9.963-10 .074M206.254 160.238l4.925-10.037-10 .075"/><path fill="none" stroke="#A8A8A8" paint-order="fill stroke markers" d="m375.746 71.208 39.327 96.19" stroke-miterlimit="10"/><path fill="none" stroke="#FFFF80" paint-order="fill stroke markers" d="M135.535 120.758v2228.269M135.535 120.758 404.123 2332.78M135.535 120.758l533.26 2163.52M135.535 120.758 925.69 2204.226M135.535 120.758l1035.529 1973.034M135.535 120.758l1265.801 1833.83M135.535 120.758 1613.151 1788.64M135.535 120.758 1803.42 1598.374M135.535 120.758l1833.83 1265.8M135.535 120.758 2108.57 1156.286M135.535 120.758l70.624 26.784M135.535 120.758l70.554 17.39M135.535 120.758l70.488 8.558M135.535 120.758h70.424M135.535 120.758l70.36-8.544M135.535 120.758l70.295-17.327M135.535 120.758l70.226-26.633M135.535 120.758 2108.57-914.771M135.535 120.758l1833.83-1265.802M135.535 120.758 1803.42-1356.858M135.535 120.758l1477.616-1667.884M135.535 120.758l1265.801-1833.83M135.535 120.758l1035.529-1973.035M135.535 120.758 925.69-1962.711M135.535 120.758l533.26-2163.52M135.535 120.758l268.588-2212.023M135.535 120.758v-2228.27M135.535 120.758l-268.588-2212.023M135.535 120.758l-533.26-2163.52M135.535 120.758-654.62-1962.711M135.535 120.758-899.993-1852.277M135.535 120.758l-1265.801-1833.83M135.535 120.758-1342.08-1547.126M135.535 120.758l-1667.884-1477.616M135.535 120.758l-1833.83-1265.802M135.535 120.758-1837.499-914.771M135.535 120.758l-2083.468-790.156M135.535 120.758l-2163.52-533.26M135.535 120.758l-2212.023-268.589M135.535 120.758h-2228.27M135.535 120.758l-2212.023 268.588M135.535 120.758l-2163.52 533.26M135.535 120.758l-2083.468 790.155M135.535 120.758l-1973.034 1035.528M135.535 120.758l-1833.83 1265.8M135.535 120.758l-1667.884 1477.616M135.535 120.758-1342.08 1788.64M135.535 120.758l-1265.801 1833.83M135.535 120.758-899.993 2093.792M135.535 120.758-654.62 2204.226M135.535 120.758l-533.26 2163.52M135.535 120.758-133.053 2332.78M206.16 147.542 383.842 91.01M206.09 138.148l181.016-39.154M206.023 129.316l184.383-22.252M205.96 120.758l187.882-5.29M205.896 112.214l191.637 12.282M205.83 103.431l195.802 31.09M205.76 94.125l200.595 51.95M383.843 91.01l-2183.534 1104.156M387.106 98.994l-2078.442 1312.334M390.406 107.064l-1956.728 1506.447M393.842 115.469l-1818.8 1687.826M397.533 124.496l-1664.265 1857.496M401.632 134.522-1090.41 2150.59M406.355 146.075-894.074 2309.756" stroke-miterlimit="10"/><path fill="#0F0" d="M133.535 118.758h5v5h-5z"/><path fill="none" stroke="gray" paint-order="fill stroke markers" d="m205.685 84.025.532 71.213" stroke-miterlimit="10" stroke-width="4" stroke-opacity=".714"/><path fill="none" stroke="#FFF" paint-order="fill stroke markers" d="m203.951 119.647 4-.03" stroke-miterlimit="10"/><path fill="red" paint-order="stroke fill markers" d="m205.648 79.025 5.074 9.963-10 .074M206.254 160.238l4.925-10.037-10 .075"/><path fill="none" stroke="#A8A8A8" paint-order="fill stroke markers" d="m375.746 71.208 39.327 96.19" stroke-miterlimit="10"/></svg>
